preset_emlek.xmp
<x:xmpmeta xmlns:x="adobe:ns:meta/" x:xmptk="Adobe XMP Core 7.0-c000 1.000000, 0000/00/00-00:00:00        ">
 <rdf:RDF xmlns:rdf="http://www.w3.org/1999/02/22-rdf-syntax-ns#">
  <rdf:Description rdf:about=""
    xmlns:crs="http://ns.adobe.com/camera-raw-settings/1.0/"
   crs:PresetType="Normal"
   crs:Cluster=""
   crs:UUID="A04D27A42934411880733CD438F9EEC5"
   crs:SupportsAmount2="True"
   crs:SupportsAmount="True"
   crs:SupportsColor="True"
   crs:SupportsMonochrome="True"
   crs:SupportsHighDynamicRange="True"
   crs:SupportsNormalDynamicRange="True"
   crs:SupportsSceneReferred="True"
   crs:SupportsOutputReferred="True"
   crs:RequiresRGBTables="False"
   crs:ShowInPresets="True"
   crs:ShowInQuickActions="False"
   crs:CameraModelRestriction=""
   crs:Copyright=""
   crs:ContactInfo=""
   crs:Version="17.5"
   crs:CompatibleVersion="268435456"
   crs:ProcessVersion="15.4"
   crs:WhiteBalance="Custom"
   crs:Temperature="7415"
   crs:Tint="+27"
   crs:Exposure2012="-0.40"
   crs:Contrast2012="+1"
   crs:Highlights2012="-100"
   crs:Shadows2012="+47"
   crs:Whites2012="-12"
   crs:Blacks2012="-60"
   crs:Texture="+2"
   crs:Clarity2012="-11"
   crs:Dehaze="0"
   crs:Vibrance="+37"
   crs:Saturation="-9"
   crs:ParametricShadows="0"
   crs:ParametricDarks="0"
   crs:ParametricLights="0"
   crs:ParametricHighlights="0"
   crs:ParametricShadowSplit="25"
   crs:ParametricMidtoneSplit="50"
   crs:ParametricHighlightSplit="75"
   crs:HueAdjustmentRed="+6"
   crs:HueAdjustmentOrange="-5"
   crs:HueAdjustmentYellow="-6"
   crs:HueAdjustmentGreen="+12"
   crs:HueAdjustmentAqua="0"
   crs:HueAdjustmentBlue="-24"
   crs:HueAdjustmentPurple="+3"
   crs:HueAdjustmentMagenta="+20"
   crs:SaturationAdjustmentRed="-21"
   crs:SaturationAdjustmentOrange="-30"
   crs:SaturationAdjustmentYellow="-32"
   crs:SaturationAdjustmentGreen="-34"
   crs:SaturationAdjustmentAqua="-28"
   crs:SaturationAdjustmentBlue="-13"
   crs:SaturationAdjustmentPurple="-17"
   crs:SaturationAdjustmentMagenta="-39"
   crs:LuminanceAdjustmentRed="-19"
   crs:LuminanceAdjustmentOrange="-10"
   crs:LuminanceAdjustmentYellow="0"
   crs:LuminanceAdjustmentGreen="0"
   crs:LuminanceAdjustmentAqua="0"
   crs:LuminanceAdjustmentBlue="-10"
   crs:LuminanceAdjustmentPurple="0"
   crs:LuminanceAdjustmentMagenta="0"
   crs:SplitToningShadowHue="286"
   crs:SplitToningShadowSaturation="1"
   crs:SplitToningHighlightHue="238"
   crs:SplitToningHighlightSaturation="0"
   crs:SplitToningBalance="0"
   crs:ColorGradeMidtoneHue="222"
   crs:ColorGradeMidtoneSat="4"
   crs:ColorGradeShadowLum="+100"
   crs:ColorGradeMidtoneLum="+52"
   crs:ColorGradeHighlightLum="+100"
   crs:ColorGradeBlending="100"
   crs:ColorGradeGlobalHue="0"
   crs:ColorGradeGlobalSat="0"
   crs:ColorGradeGlobalLum="0"
   crs:AutoLateralCA="0"
   crs:LensProfileEnable="0"
   crs:LensManualDistortionAmount="0"
   crs:VignetteAmount="0"
   crs:DefringePurpleAmount="0"
   crs:DefringePurpleHueLo="30"
   crs:DefringePurpleHueHi="70"
   crs:DefringeGreenAmount="0"
   crs:DefringeGreenHueLo="40"
   crs:DefringeGreenHueHi="60"
   crs:PerspectiveUpright="0"
   crs:PerspectiveVertical="0"
   crs:PerspectiveHorizontal="0"
   crs:PerspectiveRotate="0.0"
   crs:PerspectiveAspect="0"
   crs:PerspectiveScale="100"
   crs:PerspectiveX="0.00"
   crs:PerspectiveY="0.00"
   crs:ShadowTint="0"
   crs:RedHue="0"
   crs:RedSaturation="-14"
   crs:GreenHue="0"
   crs:GreenSaturation="0"
   crs:BlueHue="0"
   crs:BlueSaturation="0"
   crs:HDREditMode="0"
   crs:CurveRefineSaturation="100"
   crs:ToneCurveName2012="Custom"
   crs:HasSettings="True"
   crs:CropConstrainToWarp="0"
   crs:AsShotTemperature="6350"
   crs:AsShotTint="4">
   <crs:Name>
    <rdf:Alt>
     <rdf:li xml:lang="x-default">Emiék</rdf:li>
    </rdf:Alt>
   </crs:Name>
   <crs:ShortName>
    <rdf:Alt>
     <rdf:li xml:lang="x-default"/>
    </rdf:Alt>
   </crs:ShortName>
   <crs:SortName>
    <rdf:Alt>
     <rdf:li xml:lang="x-default"/>
    </rdf:Alt>
   </crs:SortName>
   <crs:Group>
    <rdf:Alt>
     <rdf:li xml:lang="x-default">Családfotózás</rdf:li>
    </rdf:Alt>
   </crs:Group>
   <crs:Description>
    <rdf:Alt>
     <rdf:li xml:lang="x-default"/>
    </rdf:Alt>
   </crs:Description>
   <crs:ToneCurvePV2012>
    <rdf:Seq>
     <rdf:li>0, 0</rdf:li>
     <rdf:li>27, 34</rdf:li>
     <rdf:li>104, 117</rdf:li>
     <rdf:li>174, 175</rdf:li>
     <rdf:li>218, 210</rdf:li>
     <rdf:li>255, 239</rdf:li>
    </rdf:Seq>
   </crs:ToneCurvePV2012>
   <crs:ToneCurvePV2012Red>
    <rdf:Seq>
     <rdf:li>0, 0</rdf:li>
     <rdf:li>255, 255</rdf:li>
    </rdf:Seq>
   </crs:ToneCurvePV2012Red>
   <crs:ToneCurvePV2012Green>
    <rdf:Seq>
     <rdf:li>0, 0</rdf:li>
     <rdf:li>255, 255</rdf:li>
    </rdf:Seq>
   </crs:ToneCurvePV2012Green>
   <crs:ToneCurvePV2012Blue>
    <rdf:Seq>
     <rdf:li>0, 0</rdf:li>
     <rdf:li>255, 255</rdf:li>
    </rdf:Seq>
   </crs:ToneCurvePV2012Blue>
   <crs:PointColors>
    <rdf:Seq>
     <rdf:li>1.522230, 0.818425, 0.090266, -0.380000, -0.170000, 0.000000, 0.500000, 0.000000, 0.330000, 0.670000, 1.000000, 0.090000, 0.640000, 1.000000, 1.000000, 0.000000, 0.150000, 0.510000, 1.000000</rdf:li>
     <rdf:li>0.234680, 0.497424, 0.215041, 0.180000, 0.080000, 0.260000, 0.500000, 0.000000, 0.330000, 0.670000, 1.000000, 0.000000, 0.320000, 0.680000, 1.000000, 0.000000, 0.320000, 0.680000, 1.000000</rdf:li>
     <rdf:li>4.648630, 0.272624, 0.154884, 0.000000, -0.080000, 0.000000, 0.500000, 0.000000, 0.330000, 0.670000, 1.000000, 0.000000, 0.090000, 0.450000, 1.000000, 0.000000, 0.250000, 0.610000, 1.000000</rdf:li>
    </rdf:Seq>
   </crs:PointColors>
   <crs:ColorVariance>
    <rdf:Seq>
     <rdf:li>0.000000</rdf:li>
     <rdf:li>0.000000</rdf:li>
     <rdf:li>0.000000</rdf:li>
    </rdf:Seq>
   </crs:ColorVariance>
   <crs:LensBlur
    crs:Version="1"
    crs:Active="false"
    crs:ImageOrientation="0"
    crs:FocalRange="0 0 100 100"
    crs:BlurAmount="50"
    crs:BokehShape="0"
    crs:BokehShapeDetail="0"
    crs:HighlightsThreshold="50"
    crs:HighlightsBoost="50"
    crs:CatEyeAmount="0"
    crs:CatEyeScale="100"
    crs:BokehAspect="0"
    crs:BokehRotation="0"
    crs:SphericalAberration="0"/>
   <crs:Look>
    <rdf:Description
     crs:Name="Adobe Color"
     crs:Amount="1"
     crs:UUID="B952C231111CD8E0ECCF14B86BAA7077"
     crs:SupportsAmount="false"
     crs:SupportsMonochrome="false"
     crs:SupportsOutputReferred="false"
     crs:Copyright="© 2018 Adobe Systems, Inc."
     crs:Stubbed="true">
    <crs:Group>
     <rdf:Alt>
      <rdf:li xml:lang="x-default">Profiles</rdf:li>
     </rdf:Alt>
    </crs:Group>
    </rdf:Description>
   </crs:Look>
  </rdf:Description>
 </rdf:RDF>
</x:xmpmeta>
